X:733
T:Vaqueirada (CT 494)
R:Vaqueirada
C:Tradicional
S:Msica Tradicional Asturiana, (C) Tello & Tito. Asturies, 2001.
S:http://pagina.de/MusTradAst <telloytito@asturies.org>
N:Cancin de empleo indeterminado, dictada por Estanislao Lana Lana, de veintin aos, de Somiedu.
A:Asturies
O:Somiedu
Z:Cancioneru de Torner 494
M:6/8
L:1/8
Q:3/8=88
K:C
E^DE
|A2 A AG^F|E3 E^DE|A2 A AG^F|E3-E2 z|
EBB BBA|c B2-B3|Bee edc|(B A2-)A2 z|
BBB cBA|c B2 cBA|(^G2 E-)EGA|(B3/2c/4B/4A-A3-)A2 ||
W:Por las montaas de Santander
W:la v llorando y le pregunt:
W:por qu lloras, vida ma
W:Porqu tengo de llorar!
W:Pas por aqu mi amante
W:y no me ha querido hablar.
W:
